packages/core/src/svgs/tokens/branded/BCOIN.svg

<svg width="24" height="24" viewBox="0 0 24 24" fill="none" xmlns="http://www.w3.org/2000/svg">
<path d="M2.625 10.1251H3.25V13.875H2.625V10.1251ZM20.7501 10.1251H21.375V13.875H20.7501V10.1251ZM3.25 8.25001H3.875V10.1251H3.25V8.25001ZM3.25 15.75H3.875V13.875H3.25V15.75ZM20.7501 15.75H20.125V13.875H20.7501V15.75ZM20.7501 8.25001H20.125V10.1251H20.7501V8.25001ZM3.875 6.375H4.49999V8.25001H3.875V6.375ZM20.125 17.625H19.5V15.75H20.125V17.625ZM3.875 17.625H4.49999V15.75H3.875V17.625ZM20.125 6.375H19.5V8.25001H20.125V6.375ZM19.5 18.8751H18.8749V17.625H19.5V18.8751ZM4.49999 5.12501H5.12499V6.375H4.49999V5.12501ZM4.49999 18.8751H5.12499V17.625H4.49999V18.8751ZM18.8749 19.5H18.25V18.8751H18.8749V19.5ZM19.5 5.12501H18.8749V6.375H19.5V5.12501ZM5.12499 4.50001H5.75001V5.12501H5.12499V4.50001ZM18.25 20.125H16.3751V19.5H18.25V20.125ZM5.12499 19.5H5.75001V18.8751H5.12499V19.5ZM18.8749 4.50001H18.25V5.12501H18.8749V4.50001ZM16.3751 20.7501H15.125V20.125H16.3751V20.7501ZM5.75001 3.87501H7.625V4.50001H5.75001V3.87501ZM5.75001 20.125H7.625V19.5H5.75001V20.125ZM15.125 21.375H13.25V20.7501H15.125V21.375ZM18.25 3.87501H16.3751V4.50001H18.25V3.87501ZM7.625 3.25001H8.875V3.87501H7.625V3.25001ZM13.875 22H12.0001V21.375H13.875V22ZM7.625 20.7501H8.875V20.125H7.625V20.7501ZM16.3751 3.25001H15.125V3.87501H16.3751V3.25001ZM8.875 2.625H10.75V3.25001H8.875V2.625ZM8.875 21.375H10.75V20.7501H8.875V21.375ZM15.125 2.625H13.25V3.25001H15.125V2.625ZM10.1249 2H12.0001V2.625H10.1249V2ZM10.1249 22H12.0001V21.375H10.1249V22ZM13.875 2H12.0001V2.625H13.875V2Z" fill="#641500"/>
<path d="M3.25049 10.1251H3.87549V13.25H3.25049V10.1251ZM3.87549 8.25001H4.50048V10.1251H3.87549V8.25001ZM20.1255 8.25001H19.5005V10.1251H20.1255V8.25001ZM4.50048 6.375H5.12548V8.25001H4.50048V6.375ZM19.5005 6.375H18.8754V8.25001H19.5005V6.375ZM5.12548 5.12501H5.7505V6.375H5.12548V5.12501ZM18.8754 5.12501H18.2505V7H18.8754V5.12501ZM5.7505 4.50001H7.62549V5.12501H5.7505V4.50001ZM18.2505 4.50001H16.3756V5.12501H18.2505V4.50001ZM7.62549 3.87501H8.87549V4.50001H7.62549V3.87501ZM16.3756 3.87501H15.1255V4.50001H16.3756V3.87501ZM8.87549 3.25001H10.7505V3.87501H8.87549V3.25001ZM15.1255 3.25001H13.2505V3.87501H15.1255V3.25001ZM10.7505 2.625H12.0006V3.25001H10.7505V2.625ZM13.2505 2.625H12.0006V3.25001H13.2505V2.625ZM20.7506 10.1251H20.1255V13.25H20.7506V10.1251Z" fill="#B02B08"/>
<path d="M3.25049 13.2501H3.87549V13.8751H3.25049V13.2501ZM20.7506 13.2501H20.1255V13.8751H20.7506V13.2501ZM3.87549 14.5001H4.50048V15.7501H3.87549V14.5001ZM20.1255 14.5001H19.5005V15.7501H20.1255V14.5001ZM4.50048 15.7501H5.12548V17.6251H4.50048V15.7501ZM19.5005 15.7501H18.8754V17.6251H19.5005V15.7501Z" fill="#F97400"/>
<path d="M5.125 16.9999H5.75001V18.8751H5.125V16.9999ZM18.8749 16.9999H18.2501V18.8751H18.8749V16.9999ZM5.75001 17.625H6.37501V19.5H5.75001V17.625ZM18.2501 17.625H17.625V19.5H18.2501V17.625ZM6.37501 18.25H7.00001V19.5H6.37501V18.25ZM17.625 18.25H17V19.5H17.625V18.25ZM7.62501 18.8751H8.25V20.125H7.62501V18.8751ZM16.3751 18.8751H15.75V20.125H16.3751V18.8751Z" fill="#BD480A"/>
<path d="M8.25 18.8751H8.875V20.125H8.25V18.8751ZM15.75 18.8751H15.125V20.125H15.75V18.8751ZM8.875 19.5H10.75V20.7501H8.875V19.5ZM15.125 19.5H13.25V20.7501H15.125V19.5ZM10.75 20.125H13.25V21.375H10.75V20.125ZM7 18.2501H7.625V19.5H7V18.2501ZM17 18.2501H16.3751V19.5H17V18.2501Z" fill="#F97400"/>
<path d="M3.87549 13.2501H4.50049V14.5001H3.87549V13.2501ZM20.1255 13.2501H19.5005V14.5001H20.1255V13.2501Z" fill="#BD480A"/>
<path d="M3.87549 10.1252H5.7505V11.3751H3.87549V10.1252Z" fill="#FFF869"/>
<path d="M20.1255 10.125H18.2505V11.375H20.1255V10.125ZM3.87549 11.375H5.7505V13.25H3.87549V11.375ZM7.00049 9.5H8.25049V13.875H7.00049V9.5ZM15.7505 9.5H17.6255V13.875H15.7505V9.5ZM7.62549 13.875H8.25049V15.1249H7.62549V13.875Z" fill="#FEB032"/>
<path d="M7.62549 10.1251H8.25049V8.87501H7.62549V10.1251ZM8.25049 14.5001H9.50053V15.75H8.25049V14.5001ZM8.25049 8.87501H8.87549V8.25001H8.25049V8.87501ZM8.87549 15.75H10.1254V16.3751H8.87549V15.75ZM8.25049 8.25001H9.50053V7.625H8.25049V8.25001ZM10.1254 15.75H14.5004V17H10.1254V15.75ZM9.50053 8.25001H14.5004V7H9.50053V8.25001ZM14.5004 15.75H15.7505V16.3751H14.5004V15.75ZM14.5004 8.25001H15.7505V7H14.5004V8.25001ZM14.5004 15.125H16.3756V15.75H14.5004V15.125Z" fill="#FEB032"/>
<path d="M15.1255 8.87506H16.3756V7.62506H15.1255V8.87506ZM15.1255 13.8751H17.0005V15.125H15.1255V13.8751Z" fill="#FEB032"/>
<path d="M15.75 9.50003H17V8.25001H15.75V9.50003ZM10.75 17H13.25V17.625H10.75V17ZM10.75 7H13.875V6.375H10.75V7ZM4.5 13.25H5.75001V15.75H4.5V13.25Z" fill="#FEB032"/>
<path d="M5.125 14.5002H6.37501V17.0001H5.125V14.5002Z" fill="#FEB032"/>
<path d="M5.75049 15.7501H7.00048V17.625H5.75049V15.7501Z" fill="#FEB032"/>
<path d="M6.375 16.3751H7.625V18.25H6.375V16.3751ZM7.625 17H8.87499V18.8751H7.625V17Z" fill="#FEB032"/>
<path d="M7 16.3751H8.25V18.2501H7V16.3751ZM8.875 17.625H10.75V19.5H8.875V17.625ZM10.75 18.2501H13.25V20.1251H10.75V18.2501ZM20.125 11.3751H18.25V13.25H20.125V11.3751ZM19.5 13.25H18.25V15.7501H19.5V13.25Z" fill="#FEB032"/>
<path d="M18.8749 14.5002H17.625V17.0001H18.8749V14.5002Z" fill="#FEB032"/>
<path d="M18.2506 15.7501H17.0005V17.625H18.2506V15.7501Z" fill="#FEB032"/>
<path d="M17.6255 16.3751H16.3756V18.25H17.6255V16.3751ZM16.3756 17H15.1255V18.8751H16.3756V17Z" fill="#FEB032"/>
<path d="M17 16.3751H15.75V18.25H17V16.3751ZM15.125 17.625H13.25V19.5H15.125V17.625Z" fill="#FEB032"/>
<path d="M4.5 8.25006H5.75001V10.1251H4.5V8.25006Z" fill="#FFF869"/>
<path d="M19.5 8.25006H18.25V10.1251H19.5V8.25006ZM18.25 8.25006H17.625V8.87506H18.25V8.25006Z" fill="#FEB032"/>
<path d="M5.125 7.62506H6.37501V8.25006H5.125V7.62506Z" fill="#FFF869"/>
<path d="M18.8755 7H17.0005V8.25001H18.8755V7Z" fill="#FEB032"/>
<path d="M5.75049 7.00005H7.00048V7.62505H5.75049V7.00005ZM6.37549 5.75006H7.62548V7.00005H6.37549V5.75006ZM7.62548 5.12506H8.87548V6.37505H7.62548V5.12506ZM8.87548 4.50006H10.7505V5.75006H8.87548V4.50006ZM10.7505 3.87506H13.2505V5.12506H10.7505V3.87506ZM13.2505 3.87506H15.1255V5.75006H13.2505V3.87506ZM15.1255 4.50006H16.3755V5.75006H15.1255V4.50006Z" fill="#FFF869"/>
<path d="M15.75 5.125H17.625V6.375H15.75V5.125Z" fill="#FFF869"/>
<path d="M16.3755 5.12506H18.2505V7.00005H16.3755V5.12506ZM12.0005 3.25006H13.2504V3.87506H12.0005V3.25006Z" fill="#FFF869"/>
<path d="M5.125 6.37505H5.75001V7.62505L5.125 7.62506V6.37505ZM5.75001 5.12506H6.37501V7.00005H5.75001V5.12506ZM6.37501 5.12506H7.62501V5.75005H6.37501V5.12506ZM7.62501 4.50006H8.875V5.12506H7.62501V4.50006ZM8.875 3.87506H10.75V4.50006H8.875V3.87506ZM10.75 3.25006H12.0001V3.87506H10.75V3.25006Z" fill="#FFFACE"/>
<path d="M5.75049 8.25006H6.37549V14.5001H5.75049V8.25006Z" fill="#C61600"/>
<path d="M6.375 8.87501H7V14.5001H6.375V8.87501ZM7 7H7.625V9.50003H7V7ZM7.625 7H8.24999V8.87501H7.625V7ZM8.24999 6.375H8.87499V7.62501L8.24999 7.62499V6.375ZM8.87499 6.375H9.50003V7.62499L8.87499 7.62501V6.375ZM9.50003 6.375H10.75V7H9.50003V6.375ZM10.75 5.75H13.25V6.375H10.75V5.75ZM13.875 6.375H15.75V7H13.875V6.375ZM15.75 7H16.3751V7.62501H15.75V7ZM16.3751 7.62501H17V8.25001H16.3751V7.62501ZM17 8.87501H17.625V9.50003H17V8.87501ZM7 13.875H7.625V15.125H7V13.875ZM7.625 15.125H8.24999V15.75H7.625V15.125ZM8.24999 15.75H8.87499V16.3751H8.24999V15.75ZM9.50003 16.3751H10.1249V17H9.50003V16.3751ZM8.87499 16.3751H9.50003V17H8.87499V16.3751Z" fill="#F97400"/>
<path d="M6.375 7.62501L7 7.62499V8.875H6.375V7.62501ZM17 7.62501H17.625V8.875H17V7.62501ZM17.625 8.875H18.25V10.1251H17.625V8.875ZM7 7H7.625V7.62501L7 7.62499V7ZM7.625 6.375H8.24999V7H7.625V6.375ZM15.75 6.375H16.3751V7H15.75V6.375ZM16.3751 7H17V7.62501H16.3751V7ZM8.87499 5.75H10.75V6.375H8.87499V5.75ZM13.25 5.75H15.75V6.375H13.25V5.75ZM10.75 5.125H13.25V5.75H10.75V5.125ZM7 15.125H7.625V16.3751H7V15.125ZM6.375 13.875H7V15.75H6.375V13.875ZM7.625 15.75H8.24999V16.3751H7.625V15.75ZM8.24999 16.3751H8.87499V17H8.24999V16.3751Z" fill="#C61600"/>
<path d="M8.875 17.0001H10.75V17.6251H8.875V17.0001ZM13.25 17.0001H15.125V17.6251H13.25V17.0001ZM14.4999 16.3752H15.75V17.0001H14.4999V16.3752ZM15.75 15.7501H16.3751V16.3752H15.75V15.7501ZM16.3751 15.1251H17V16.3752H16.3751V15.1251ZM17 13.8751H17.625V15.7501H17V13.8751ZM17.625 10.1252H18.25V14.5002H17.625V10.1252ZM10.75 17.6251H13.25V18.2501H10.75V17.6251Z" fill="#FFF869"/>
<path d="M9.50049 15.125H14.5004V15.75H9.50049V15.125Z" fill="#620719"/>
<path d="M9.50004 14.5001H14.4999V15.125H9.50004V14.5001ZM8.875 8.87506H15.125V9.50009H8.875V8.87506Z" fill="#F97400"/>
<path d="M8.875 9.5H15.125V10.125H8.875V9.5Z" fill="#D93900"/>
<path d="M13.25 10.1252H14.4999V11.3751H13.25V10.1252Z" fill="#FFF869"/>
<path d="M12.0005 10.1252H13.2504V11.3751H12.0005V10.1252Z" fill="#F6D45A"/>
<path d="M8.875 8.25006H15.125V8.87506H8.875V8.25006ZM8.875 13.25H9.50004V14.5001H8.875V13.25ZM14.4999 13.25H15.125V14.5001H14.4999V13.25Z" fill="#F97400"/>
<path d="M14.4999 11.3751H15.125V13.25H14.4999V11.3751ZM8.875 11.3751H9.50004V13.25H8.875V11.3751ZM14.4999 13.25V14.5001H9.50004V13.25H14.4999ZM10.1249 11.3751V12.0001H9.50004V11.3751H10.1249Z" fill="#C61600"/>
<path d="M13.8756 10.75V12.0001H13.2505V10.75H13.8756ZM11.3755 12.0001V12.625H10.7505V12.0001H11.3755ZM13.2505 12.0001V12.625H12.6255V12.0001H13.2505Z" fill="#00070A"/>
<path d="M14.5004 12.0002V13.2501H13.2504V12.0002H14.5004ZM10.7504 12.0002V13.2501H9.50049V12.0002H10.7504ZM11.3755 10.1252V11.3751H10.7504V10.1252H11.3755ZM13.2504 12.6251V13.2501H10.7504V12.6251H13.2504Z" fill="white"/>
<path d="M12.6249 12.0001V13.25H11.375V12.0001H12.6249Z" fill="#F5CB9C"/>
<path d="M13.2505 11.3751V12.0001H10.7505V11.3751H13.2505ZM14.5004 11.3751V12.0001H13.8756V11.3751H14.5004Z" fill="#C61600"/>
<path d="M8.87549 14.5002H9.50053V15.1251H8.87549V14.5002ZM14.5004 14.5002H15.1255V15.1251H14.5004V14.5002ZM15.1255 10.1252H15.7505V14.5002H15.1255V10.1252ZM8.25049 10.1252H8.87549V14.5002H8.25049V10.1252Z" fill="#620719"/>
<path d="M8.25049 8.87506H8.87549V10.1251H8.25049V8.87506ZM10.1254 8.25006V8.87506H8.87549V8.25006H10.1254ZM15.1255 8.25006V8.87506H14.5004V8.25006H15.1255ZM15.1255 8.87506H15.7505V10.1251H15.1255V8.87506ZM14.5004 10.1251H15.1255V11.3751H14.5004V10.1251ZM8.87549 10.1251H9.50053V11.3751H8.87549V10.1251Z" fill="#9E100A"/>
<path d="M9.50049 10.1252H10.1254V11.3751H9.50049V10.1252Z" fill="#EEB04B"/>
<path d="M11.3756 10.1252H12.0006V11.3751H11.3756V10.1252ZM10.1255 10.1252H10.7505V11.3751H10.1255V10.1252Z" fill="#FFF869"/>
<path d="M10.7505 10.75V12.0001H10.1255V10.75H10.7505Z" fill="#00070A"/>
</svg>

<svg xmlns="http://www.w3.org/2000/svg" width="24" height="24" fill="none" viewBox="0 0 24 24">
    <path fill="#641500" d="M2.625 10.125h.625v3.75h-.625zm18.125 0h.625v3.75h-.625zM3.25 8.25h.625v1.875H3.25zm0 7.5h.625v-1.875H3.25zm17.5 0h-.625v-1.875h.625zm0-7.5h-.625v1.875h.625zM3.875 6.375H4.5V8.25h-.625zm16.25 11.25H19.5V15.75h.625zm-16.25 0H4.5V15.75h-.625zm16.25-11.25H19.5V8.25h.625zm-.625 12.5h-.625v-1.25h.625zm-15-13.75h.625v1.25H4.5zm0 13.75h.625v-1.25H4.5zm14.375.625h-.625v-.625h.625zM19.5 5.125h-.625v1.25h.625zM5.125 4.5h.625v.625h-.625zM18.25 20.125h-1.875V19.5h1.875zM5.125 19.5h.625v-.625h-.625zm13.75-15h-.625v.625h.625zm-2.5 16.25h-1.25v-.625h1.25zM5.75 3.875h1.875V4.5H5.75zm0 16.25h1.875V19.5H5.75zm9.375 1.25H13.25v-.625h1.875zm3.125-17.5h-1.875V4.5h1.875zM7.625 3.25h1.25v.625h-1.25zM13.875 22H12v-.625h1.875zm-6.25-1.25h1.25v-.625h-1.25zm8.75-17.5h-1.25v.625h1.25zm-7.5-.625h1.875v.625H8.875zm0 18.75h1.875v-.625H8.875zm6.25-18.75H13.25v.625h1.875zm-5-.625H12v.625h-1.875zm0 20H12v-.625h-1.875zm3.75-20H12v.625h1.875z"/>
    <path fill="#B02B08" d="M3.25 10.125h.625v3.125H3.25zm.625-1.875H4.5v1.875h-.625zm16.25 0H19.5v1.875h.625zM4.5 6.375h.625V8.25H4.5zm15 0h-.625V8.25h.625zM5.125 5.125h.625v1.25h-.625zm13.75 0h-.625V7h.625zM5.75 4.5h1.875v.625H5.75zm12.5 0h-1.874v.625h1.874zM7.625 3.875h1.25V4.5h-1.25zm8.75 0h-1.25V4.5h1.25zm-7.5-.625h1.876v.625H8.875zm6.25 0h-1.874v.625h1.875zm-4.374-.625H12v.625h-1.25zm2.5 0H12v.625h1.25zm7.5 7.5h-.626v3.125h.626z"/>
    <path fill="#F97400" d="M3.25 13.25h.625v.625H3.25zm17.5 0h-.625v.625h.626zM3.876 14.5H4.5v1.25h-.625zm16.25 0H19.5v1.25h.625zM4.5 15.75h.625v1.875H4.5zm15 0h-.625v1.875h.625z"/>
    <path fill="#BD480A" d="M5.125 17h.625v1.875h-.625zm13.75 0h-.625v1.875h.625zm-13.125.625h.625V19.5H5.75zm12.5 0h-.625V19.5h.625zm-11.875.625H7v1.25h-.625zm11.25 0H17v1.25h.625zm-10 .625h.625v1.25h-.625zm8.75 0h-.625v1.25h.625z"/>
    <path fill="#F97400" d="M8.25 18.875h.625v1.25H8.25zm7.5 0h-.625v1.25h.625zm-6.875.625h1.875v1.25H8.875zm6.25 0H13.25v1.25h1.875zm-4.375.625h2.5v1.25h-2.5zM7 18.25h.625v1.25H7zm10 0h-.625v1.25H17z"/>
    <path fill="#BD480A" d="M3.875 13.25H4.5v1.25h-.625zm16.25 0H19.5v1.25h.625z"/>
    <path fill="#FFF869" d="M3.875 10.125H5.75v1.25H3.875z"/>
    <path fill="#FEB032" d="M20.126 10.125H18.25v1.25h1.875zm-16.25 1.25H5.75v1.875H3.875zM7 9.5h1.25v4.375H7zm8.75 0h1.875v4.375h-1.874zm-8.125 4.375h.625v1.25h-.625z"/>
    <path fill="#FEB032" d="M7.625 10.125h.625v-1.25h-.625zM8.25 14.5H9.5v1.25H8.25zm0-5.625h.625V8.25H8.25zm.625 6.875h1.25v.625h-1.25zm-.625-7.5H9.5v-.625H8.25zm1.875 7.5H14.5V17h-4.375zm-.624-7.5h5V7h-5zm5 7.5h1.25v.625H14.5zm0-7.5h1.25V7H14.5zm0 6.875h1.875v.625H14.5z"/>
    <path fill="#FEB032" d="M15.126 8.875h1.25v-1.25h-1.25zm0 5H17v1.25h-1.874z"/>
    <path fill="#FEB032" d="M15.75 9.5H17V8.25h-1.25zm-5 7.5h2.5v.625h-2.5zm0-10h3.125v-.625H10.75zM4.5 13.25h1.25v2.5H4.5z"/>
    <path fill="#FEB032" d="M5.125 14.5h1.25V17h-1.25z"/>
    <path fill="#FEB032" d="M5.75 15.75H7v1.875H5.75z"/>
    <path fill="#FEB032" d="M6.375 16.375h1.25v1.875h-1.25zm1.25.625h1.25v1.875h-1.25z"/>
    <path fill="#FEB032" d="M7 16.375h1.25v1.875H7zm1.875 1.25h1.875V19.5H8.875zm1.875.625h2.5v1.875h-2.5zm9.375-6.875H18.25v1.875h1.875zM19.5 13.25h-1.25v2.5h1.25z"/>
    <path fill="#FEB032" d="M18.875 14.5h-1.25V17h1.25z"/>
    <path fill="#FEB032" d="M18.25 15.75H17v1.875h1.25z"/>
    <path fill="#FEB032" d="M17.626 16.375h-1.25v1.875h1.25zm-1.25.625h-1.25v1.875h1.25z"/>
    <path fill="#FEB032" d="M17 16.375h-1.25v1.875H17zm-1.875 1.25H13.25V19.5h1.875z"/>
    <path fill="#FFF869" d="M4.5 8.25h1.25v1.875H4.5z"/>
    <path fill="#FEB032" d="M19.5 8.25h-1.25v1.875h1.25zm-1.25 0h-.625v.625h.625z"/>
    <path fill="#FFF869" d="M5.125 7.625h1.25v.625h-1.25z"/>
    <path fill="#FEB032" d="M18.876 7H17v1.25h1.875z"/>
    <path fill="#FFF869" d="M5.75 7H7v.625H5.75zm.625-1.25h1.25V7h-1.25zm1.25-.625h1.25v1.25h-1.25zm1.25-.625h1.876v1.25H8.875zm1.876-.625h2.5v1.25h-2.5zm2.5 0h1.875V5.75H13.25zm1.875.625h1.25v1.25h-1.25z"/>
    <path fill="#FFF869" d="M15.75 5.125h1.875v1.25H15.75z"/>
    <path fill="#FFF869" d="M16.375 5.125h1.875V7h-1.875zM12.002 3.25h1.25v.625H12z"/>
    <path fill="#FFFACE" d="M5.125 6.375h.625v1.25h-.625zm.625-1.25h.625V7H5.75zm.625 0h1.25v.625h-1.25zm1.25-.625h1.25v.625h-1.25zm1.25-.625h1.875V4.5H8.875zm1.875-.625H12v.625h-1.25z"/>
    <path fill="#C61600" d="M5.75 8.25h.625v6.25H5.75z"/>
    <path fill="#F97400" d="M6.375 8.875H7V14.5h-.625zM7 7h.625v2.5H7zm.625 0h.625v1.875h-.625zm.625-.625h.625v1.25H8.25zm.625 0H9.5v1.25h-.625zm.625 0h1.25V7H9.5zm1.25-.625h2.5v.625h-2.5zm3.125.625h1.875V7h-1.875zM15.75 7h.625v.625h-.625zm.625.625H17v.625h-.625zM17 8.875h.625V9.5H17zm-10 5h.625v1.25H7zm.625 1.25h.625v.625h-.625zm.625.625h.625v.625H8.25zm1.25.625h.625V17H9.5zm-.625 0H9.5V17h-.625z"/>
    <path fill="#C61600" d="M6.375 7.625H7v1.25h-.625zm10.625 0h.625v1.25H17zm.625 1.25h.625v1.25h-.625zM7 7h.625v.625H7zm.625-.625h.625V7h-.625zm8.125 0h.625V7h-.625zm.625.625H17v.625h-.625zm-7.5-1.25h1.875v.625H8.875zm4.375 0h2.5v.625h-2.5zm-2.5-.625h2.5v.625h-2.5zm-3.75 10h.625v1.25H7zm-.625-1.25H7v1.875h-.625zm1.25 1.875h.625v.625h-.625zm.625.625h.625V17H8.25z"/>
    <path fill="#FFF869" d="M8.875 17h1.875v.625H8.875zm4.375 0h1.875v.625H13.25zm1.25-.625h1.25V17H14.5zm1.25-.625h.625v.625h-.625zm.625-.625H17v1.25h-.625zm.625-1.25h.625v1.875H17zm.625-3.75h.625V14.5h-.625zm-6.875 7.5h2.5v.625h-2.5z"/>
    <path fill="#620719" d="M9.5 15.125h5v.625h-5z"/>
    <path fill="#F97400" d="M9.5 14.5h5v.625h-5zm-.625-5.625h6.25V9.5h-6.25z"/>
    <path fill="#D93900" d="M8.875 9.5h6.25v.625h-6.25z"/>
    <path fill="#FFF869" d="M13.25 10.125h1.25v1.25h-1.25z"/>
    <path fill="#F6D45A" d="M12 10.125h1.25v1.25H12z"/>
    <path fill="#F97400" d="M8.875 8.25h6.25v.625h-6.25zm0 5H9.5v1.25h-.625zm5.625 0h.625v1.25H14.5z"/>
    <path fill="#C61600" d="M14.5 11.375h.625v1.875H14.5zm-5.625 0H9.5v1.875h-.625zM14.5 13.25v1.25h-5v-1.25zm-4.375-1.875V12H9.5v-.625z"/>
    <path fill="#00070A" d="M13.876 10.75V12h-.625v-1.25zm-2.5 1.25v.625h-.625V12zm1.875 0v.625h-.625V12z"/>
    <path fill="#fff" d="M14.5 12v1.25h-1.25V12zm-3.75 0v1.25H9.5V12zm.626-1.875v1.25h-.626v-1.25zm1.874 2.5v.625h-2.5v-.625z"/>
    <path fill="#F5CB9C" d="M12.625 12v1.25h-1.25V12z"/>
    <path fill="#C61600" d="M13.25 11.375V12h-2.5v-.625zm1.25 0V12h-.624v-.625z"/>
    <path fill="#620719" d="M8.875 14.5h.626v.625h-.626zm5.625 0h.626v.625H14.5zm.626-4.375h.625V14.5h-.625zm-6.876 0h.625V14.5H8.25z"/>
    <path fill="#9E100A" d="M8.25 8.875h.625v1.25H8.25zm1.875-.625v.625h-1.25V8.25zm5 0v.625H14.5V8.25zm0 .625h.626v1.25h-.625zm-.625 1.25h.626v1.25H14.5zm-5.625 0h.626v1.25h-.626z"/>
    <path fill="#EEB04B" d="M9.5 10.125h.625v1.25H9.5z"/>
    <path fill="#FFF869" d="M11.376 10.125H12v1.25h-.625zm-1.25 0h.625v1.25h-.625z"/>
    <path fill="#00070A" d="M10.75 10.75V12h-.624v-1.25z"/>
</svg>
